X: 11546
T: Eden Star, The
R: reel
M: 4/4
K: Dmajor
FE|D2FA d2cd|ecAc d2fg|afdf gecA|dBGF E2FE|
D2FA d2cd|ecAc d2fg|afdf gecA|d2dc d2de|
f2f2 fdBd|AFED E2FE|D2FA d2cd|ecAc d2fg|
f2f2 fdBd|AFED E2FE|Ddcd BdAF|EDEF D2z2|

